img/right-quote.svg

<svg width="124" height="124" viewBox="0 0 124 124" fill="none" xmlns="http://www.w3.org/2000/svg">
<g clip-path="url(#clip0)">
<path d="M25.9625 73.2375C26.1562 75.95 25.9625 83.3125 18.9875 93.3875C18.4062 94.1625 18.6 95.1313 19.1812 95.9063C22.0875 98.8125 23.8312 100.556 24.9937 101.913C26.5437 103.656 27.3187 104.431 28.4812 105.4C29.2562 105.981 30.225 105.981 31 105.4C43.2062 94.7438 56.9625 72.6562 54.8312 45.725C53.6687 29.8375 42.0437 18.4063 27.3187 18.4063C12.2062 18.4063 -0.193793 30.8063 -0.193792 45.9188C-4.21147e-05 60.45 11.4312 72.2688 25.9625 73.2375Z" fill="#CE1257" fill-opacity="0.25"/>
<path d="M94.7438 73.2375C94.9375 75.95 94.7438 83.3125 87.7688 93.3875C87.1875 94.1625 87.3813 95.1313 87.9625 95.9063C90.8688 98.8125 92.6125 100.556 93.775 101.913C95.325 103.656 96.1 104.431 97.2625 105.4C98.0375 105.981 99.0063 105.981 99.7813 105.4C112.181 94.55 125.744 72.6562 123.806 45.5313C122.644 29.6438 111.019 18.2125 96.2938 18.2125C81.1813 18.2125 68.7813 30.6125 68.7813 45.725C68.7813 60.45 80.2125 72.2688 94.7438 73.2375Z" fill="#CE1257" fill-opacity="0.25"/>
</g>
<defs>
<clipPath id="clip0">
<rect width="124" height="124" fill="white" transform="translate(124 124) rotate(180)"/>
</clipPath>
</defs>
</svg>

<svg width="124" height="124" viewBox="0 0 124 124" fill="none" xmlns="http://www.w3.org/2000/svg"><g clip-path="url(#a)" fill="#CE1257" fill-opacity=".25"><path d="M25.962 73.237c.194 2.713 0 10.076-6.974 20.15-.582.775-.388 1.744.193 2.52 2.906 2.906 4.65 4.649 5.813 6.006 1.55 1.743 2.325 2.518 3.487 3.487.775.581 1.744.581 2.519 0 12.206-10.656 25.962-32.744 23.831-59.675C53.67 29.837 42.044 18.406 27.32 18.406c-15.113 0-27.513 12.4-27.513 27.513C0 60.45 11.431 72.269 25.962 73.238zM94.744 73.237c.194 2.713 0 10.076-6.975 20.15-.582.775-.388 1.744.194 2.52 2.906 2.906 4.65 4.649 5.812 6.006 1.55 1.743 2.325 2.518 3.487 3.487.775.581 1.744.581 2.52 0 12.399-10.85 25.962-32.744 24.024-59.869-1.162-15.887-12.787-27.319-27.512-27.319-15.113 0-27.513 12.4-27.513 27.513 0 14.725 11.431 26.544 25.963 27.512z"/></g><defs><clipPath id="a"><path fill="#fff" transform="rotate(180 62 62)" d="M0 0h124v124H0z"/></clipPath></defs></svg>
